icons/cursor-square.svg

<svg xmlns="http://www.w3.org/2000/svg" viewBox="0 0 24 24" fill="currentColor">
  <path d="M8.56078 7.13599c-.36055 0-.73962.11899-1.01251.3919-.27991.27992-.42337.71847-.24932 1.15551l1.52042 5.8052.03492.0699c.12576.2515.36684.5496.75757.6612.44444.127.85244-.0486 1.13234-.3286l1.5362-1.536 3.1891 3.1891c.2929.2929.7678.2929 1.0607 0 .2929-.2929.2929-.7677 0-1.0606l-3.1892-3.1892 1.6739-1.6738c.28-.2801.4555-.68808.3285-1.13249-.1116-.3907-.4097-.63177-.6612-.75751l-.0699-.03493-5.95493-1.55968h-.09659Zm3.19882 4.61851 1.7873-1.78729-4.68232-1.22636 1.22632 4.68235 1.6496-1.6496c.0031-.0032.0063-.0064.0094-.0096.0032-.0032.0064-.0064.0097-.0095Z"/>
  <path d="M9 3.75C6.11421 3.75 3.75 6.11421 3.75 9v6c0 2.8858 2.36421 5.25 5.25 5.25h6c2.8858 0 5.25-2.3642 5.25-5.25V9c0-2.88579-2.3642-5.25-5.25-5.25H9ZM2.25 9c0-3.71421 3.03579-6.75 6.75-6.75h6c3.7142 0 6.75 3.03579 6.75 6.75v6c0 3.7142-3.0358 6.75-6.75 6.75H9c-3.71421 0-6.75-3.0358-6.75-6.75V9Z"/>
</svg>

<svg width="24" height="24" viewBox="0 0 24 24" fill="none" xmlns="http://www.w3.org/2000/svg">
<path fill-rule="evenodd" clip-rule="evenodd" d="M8.56078 7.13599C8.20023 7.13599 7.82116 7.25498 7.54827 7.52789C7.26836 7.80781 7.1249 8.24636 7.29895 8.6834L8.81937 14.4886L8.85429 14.5585C8.98005 14.81 9.22113 15.1081 9.61186 15.2197C10.0563 15.3467 10.4643 15.1711 10.7442 14.8911L12.2804 13.3551L15.4695 16.5442C15.7624 16.8371 16.2373 16.8371 16.5302 16.5442C16.8231 16.2513 16.8231 15.7765 16.5302 15.4836L13.341 12.2944L15.0149 10.6206C15.2949 10.3405 15.4704 9.93252 15.3434 9.48811C15.2318 9.09741 14.9337 8.85634 14.6822 8.7306L14.6123 8.69567L8.65737 7.13599H8.56078ZM11.7596 11.7545L13.5469 9.96721L8.86458 8.74085L10.0909 13.4232L11.7405 11.7736C11.7436 11.7704 11.7468 11.7672 11.7499 11.764C11.7531 11.7608 11.7563 11.7576 11.7596 11.7545Z" fill="black"/>
<path fill-rule="evenodd" clip-rule="evenodd" d="M9 3.75C6.11421 3.75 3.75 6.11421 3.75 9V15C3.75 17.8858 6.11421 20.25 9 20.25H15C17.8858 20.25 20.25 17.8858 20.25 15V9C20.25 6.11421 17.8858 3.75 15 3.75H9ZM2.25 9C2.25 5.28579 5.28579 2.25 9 2.25H15C18.7142 2.25 21.75 5.28579 21.75 9V15C21.75 18.7142 18.7142 21.75 15 21.75H9C5.28579 21.75 2.25 18.7142 2.25 15V9Z" fill="black"/>
</svg>
